src/assets/img/navbar/icon/members.svg

<svg height="18" width="18.35" xmlns:xlink="http://www.w3.org/1999/xlink" xmlns="http://www.w3.org/2000/svg"><g transform="translate(-1.1 1.65)"><use height="50" transform="matrix(.36 0 0 .36 1.45 -1.65)" width="50" xlink:href="#a"/><use height="17.95" transform="translate(10.8 -1.65)" width="8.65" xlink:href="#b"/><use height="12.45" transform="translate(1.1 2.05)" width="14.9" xlink:href="#c"/><use height="12.45" transform="translate(1.1 2.05)" width="14.9" xlink:href="#d"/></g><defs><path d="M25 0q0 10.3-7.3 17.65Q10.35 25 0 25t-17.65-7.35Q-25 10.3-25 0q0-10.35 7.35-17.7Q-10.35-25.05 0-25q10.35-.05 17.7 7.3Q25-10.35 25 0" fill="#fff" fill-rule="evenodd" transform="translate(25 25)" id="g"/><path d="M0 0q3.6.15 6.15 2.75 2.5 2.6 2.5 6.25t-2.5 6.25Q3.6 17.85 0 17.95V0" fill="url(#e)" fill-rule="evenodd" id="h"/><path d="m10.4 7.8-7.25 4.65L0 7.6l7.3-4.7L5.4 0l9.5 1.45-2.65 9.25-1.85-2.9" fill="#f30" fill-rule="evenodd" id="i"/><path d="m10.4 7.8-7.25 4.65L0 7.6l7.3-4.7L5.4 0l9.5 1.45-2.65 9.25-1.85-2.9" fill="url(#f)" fill-rule="evenodd" id="j"/><use height="50" width="50" xlink:href="#g" id="a"/><use height="17.95" width="8.65" xlink:href="#h" id="b"/><use height="12.45" width="14.9" xlink:href="#i" id="c"/><use height="12.45" width="14.9" xlink:href="#j" id="d"/><linearGradient gradientTransform="matrix(.0053 0 0 .011 4.3 8.95)" gradientUnits="userSpaceOnUse" id="e" spreadMethod="pad" x1="-819.2" x2="819.2"><stop offset="0" stop-color="#f96"/><stop offset="1" stop-color="#f96" stop-opacity="0"/></linearGradient><linearGradient gradientTransform="matrix(.0091 0 0 .0076 7.45 6.2)" gradientUnits="userSpaceOnUse" id="f" spreadMethod="pad" x1="-819.2" x2="819.2"><stop offset="0" stop-color="#f96"/><stop offset="1" stop-color="#f96" stop-opacity="0"/></linearGradient></defs></svg>

<?xml version="1.0" encoding="UTF-8" standalone="no"?>
<svg
   height="18.000122"
   width="18.35"
   version="1.1"
   id="svg3790"
   sodipodi:docname="members.svg"
   inkscape:version="1.1 (c4e8f9ed74, 2021-05-24)"
   xmlns:inkscape="http://www.inkscape.org/namespaces/inkscape"
   xmlns:sodipodi="http://sodipodi.sourceforge.net/DTD/sodipodi-0.dtd"
   xmlns:xlink="http://www.w3.org/1999/xlink"
   xmlns="http://www.w3.org/2000/svg"
   xmlns:svg="http://www.w3.org/2000/svg">
  <sodipodi:namedview
     id="namedview3792"
     pagecolor="#505050"
     bordercolor="#eeeeee"
     borderopacity="1"
     inkscape:pageshadow="0"
     inkscape:pageopacity="0"
     inkscape:pagecheckerboard="0"
     showgrid="false"
     inkscape:zoom="15.537238"
     inkscape:cx="-14.159531"
     inkscape:cy="5.7281737"
     inkscape:current-layer="svg3790" />
  <g
     transform="translate(-1.1,1.6501216)"
     id="g3752">
    <use
       height="50"
       transform="matrix(0.36,0,0,0.36,1.45,-1.65)"
       width="50"
       xlink:href="#sprite0"
       id="use3744"
       x="0"
       y="0" />
    <use
       height="17.950001"
       transform="translate(10.8,-1.65)"
       width="8.6499996"
       xlink:href="#sprite1"
       id="use3746"
       x="0"
       y="0" />
    <use
       height="12.45"
       transform="translate(1.1,2.05)"
       width="14.9"
       xlink:href="#sprite2"
       id="use3748"
       x="0"
       y="0" />
    <use
       height="12.45"
       transform="translate(1.1,2.05)"
       width="14.9"
       xlink:href="#sprite3"
       id="use3750"
       x="0"
       y="0" />
  </g>
  <defs
     id="defs3788">
    <g
       id="sprite0"
       transform="translate(25,25)">
      <use
         height="50"
         transform="translate(-25,-25)"
         width="50"
         xlink:href="#shape0"
         id="use3754"
         x="0"
         y="0" />
    </g>
    <g
       id="shape0"
       transform="translate(25,25)">
      <path
         d="M 25,0 Q 25,10.3 17.7,17.65 10.35,25 0,25 -10.35,25 -17.65,17.65 -25,10.3 -25,0 q 0,-10.35 7.35,-17.7 7.3,-7.35 17.65,-7.3 10.35,-0.05 17.7,7.3 Q 25,-10.35 25,0"
         fill="#ffffff"
         fill-rule="evenodd"
         stroke="none"
         id="path3757" />
    </g>
    <g
       id="sprite1">
      <use
         height="17.950001"
         width="8.6499996"
         xlink:href="#shape1"
         id="use3760"
         x="0"
         y="0" />
    </g>
    <g
       id="shape1">
      <path
         d="m 0,0 q 3.6,0.15 6.15,2.75 2.5,2.6 2.5,6.25 0,3.65 -2.5,6.25 Q 3.6,17.85 0,17.95 V 0"
         fill="url(#gradient0)"
         fill-rule="evenodd"
         stroke="none"
         id="path3763" />
    </g>
    <linearGradient
       gradientTransform="matrix(0.0053,0,0,0.011,4.3,8.95)"
       gradientUnits="userSpaceOnUse"
       id="gradient0"
       spreadMethod="pad"
       x1="-819.20001"
       x2="819.20001">
      <stop
         offset="0.0"
         stop-color="#ff9966"
         id="stop3766" />
      <stop
         offset="1.0"
         stop-color="#ff9966"
         stop-opacity="0.0"
         id="stop3768" />
    </linearGradient>
    <g
       id="sprite2">
      <use
         height="12.45"
         width="14.9"
         xlink:href="#shape2"
         id="use3771"
         x="0"
         y="0" />
    </g>
    <g
       id="shape2">
      <path
         d="M 10.4,7.8 3.15,12.45 0,7.6 7.3,2.9 5.4,0 14.9,1.45 12.25,10.7 10.4,7.8"
         fill="#ff3300"
         fill-rule="evenodd"
         stroke="none"
         id="path3774" />
    </g>
    <g
       id="sprite3">
      <use
         height="12.45"
         width="14.9"
         xlink:href="#shape3"
         id="use3777"
         x="0"
         y="0" />
    </g>
    <g
       id="shape3">
      <path
         d="M 10.4,7.8 3.15,12.45 0,7.6 7.3,2.9 5.4,0 14.9,1.45 12.25,10.7 10.4,7.8"
         fill="url(#gradient1)"
         fill-rule="evenodd"
         stroke="none"
         id="path3780" />
    </g>
    <linearGradient
       gradientTransform="matrix(0.0091,0,0,0.0076,7.45,6.2)"
       gradientUnits="userSpaceOnUse"
       id="gradient1"
       spreadMethod="pad"
       x1="-819.20001"
       x2="819.20001">
      <stop
         offset="0.0"
         stop-color="#ff9966"
         id="stop3783" />
      <stop
         offset="1.0"
         stop-color="#ff9966"
         stop-opacity="0.0"
         id="stop3785" />
    </linearGradient>
  </defs>
</svg>
